icons/home-smile-line.svg

<svg xmlns="http://www.w3.org/2000/svg" width="24" height="24" fill="none"><g clip-path="url(#a)"><g><path fill="#121212" d="M6 19H18V9.15704L12 3.70304L6 9.15704V19ZM19 21H5C4.73478 21 4.48043 20.8947 4.29289 20.7071C4.10536 20.5196 4 20.2653 4 20V11H1L11.327 1.61204C11.5111 1.44452 11.7511 1.35168 12 1.35168C12.2489 1.35168 12.4889 1.44452 12.673 1.61204L23 11H20V20C20 20.2653 19.8946 20.5196 19.7071 20.7071C19.5196 20.8947 19.2652 21 19 21ZM7.5 13H9.5C9.5 13.6631 9.76339 14.299 10.2322 14.7678C10.7011 15.2366 11.337 15.5 12 15.5C12.663 15.5 13.2989 15.2366 13.7678 14.7678C14.2366 14.299 14.5 13.6631 14.5 13H16.5C16.5 14.1935 16.0259 15.3381 15.182 16.182C14.3381 17.0259 13.1935 17.5 12 17.5C10.8065 17.5 9.66193 17.0259 8.81802 16.182C7.97411 15.3381 7.5 14.1935 7.5 13Z"/></g></g><defs><clipPath id="a"><rect width="24" height="24" fill="white"/></clipPath></defs></svg>

<svg width="24" height="24" fill="none" xmlns="http://www.w3.org/2000/svg"><g clip-path="url(#a)"><path d="M6 19h12V9.157l-6-5.454-6 5.454V19Zm13 2H5a1 1 0 0 1-1-1v-9H1l10.327-9.388a1 1 0 0 1 1.346 0L23 11h-3v9a1 1 0 0 1-1 1ZM7.5 13h2a2.5 2.5 0 1 0 5 0h2a4.5 4.5 0 1 1-9 0Z" /></g><defs><clipPath id="a"><path fill="#fff" d="M0 0h24v24H0z"/></clipPath></defs></svg>
